icons/lines/path-two.svg

<svg xmlns="http://www.w3.org/2000/svg" width="24" height="24" viewBox="0 0 24 24" fill="none" stroke="currentColor" stroke-width="2" stroke-linecap="round" stroke-linejoin="round" >
  <g clip-path="url(#clip0_40_2737)">
  <path d="M9.87007 22H14.1601C15.7801 22 16.8501 20.84 16.5301 19.43L15.8401 16.35H8.20007L7.51007 19.43C7.20007 20.76 8.34007 22 9.87007 22Z"/>
  <path d="M15.8301 16.35L18.7701 13.74C20.4101 12.28 20.4801 11.26 19.1801 9.60999L13.9901 3.03C12.9001 1.65 11.1201 1.65 10.0201 3.03L4.84013 9.60999C3.54013 11.26 3.54013 12.33 5.25013 13.74L8.19013 16.35"/>
  <path d="M12.0098 2.67001V6.97001"/>
  </g>
  <defs>
  <clipPath id="clip0_40_2737">
  <rect width="24" height="24"/>
  </clipPath>
  </defs>
  </svg>

<svg xmlns="http://www.w3.org/2000/svg" width="24" height="24" viewBox="0 0 24 24" fill="none" stroke="currentColor" stroke-width="2" stroke-linecap="round" stroke-linejoin="round">
  <path d="M12.01 2.67v4.3" />
  <path d="M14.16 22c1.62 0 2.69-1.16 2.37-2.57l-.69-3.08H8.2l-.69 3.08C7.2 20.76 8.34 22 9.87 22z" />
  <path d="m15.83 16.35 2.94-2.61c1.64-1.46 1.71-2.48.41-4.13l-5.19-6.58c-1.09-1.38-2.87-1.38-3.97 0L4.84 9.61c-1.3 1.65-1.3 2.72.41 4.13l2.94 2.61" />
</svg>
